build/img/mobile-control.svg

<svg width="180" height="40" viewBox="0 0 180 40" fill="none" xmlns="http://www.w3.org/2000/svg">
<g clip-path="url(#clip0)">
<path d="M81.7967 4.73451V14.0234H80.3105V3.36206H82.8072L85.5219 12.2532L88.2366 3.36206H90.7333V14.0234H89.2471V4.73451L86.3145 14.0234H84.7293L81.7967 4.73451Z" fill="#231F20"/>
<path d="M92.8931 8.69224C92.804 7.98643 92.8656 7.26967 93.0738 6.5896C93.282 5.90953 93.632 5.28174 94.1006 4.74798C94.5692 4.21421 95.1457 3.7867 95.7916 3.49386C96.4375 3.20102 97.1382 3.04956 97.8469 3.04956C98.5557 3.04956 99.2563 3.20102 99.9022 3.49386C100.548 3.7867 101.125 4.21421 101.593 4.74798C102.062 5.28174 102.412 5.90953 102.62 6.5896C102.828 7.26967 102.89 7.98643 102.801 8.69224C102.89 9.39805 102.828 10.1148 102.62 10.7949C102.412 11.475 102.062 12.1027 101.593 12.6365C101.125 13.1703 100.548 13.5978 99.9022 13.8906C99.2563 14.1835 98.5557 14.3349 97.8469 14.3349C97.1382 14.3349 96.4375 14.1835 95.7916 13.8906C95.1457 13.5978 94.5692 13.1703 94.1006 12.6365C93.632 12.1027 93.282 11.475 93.0738 10.7949C92.8656 10.1148 92.804 9.39805 92.8931 8.69224ZM101.315 8.69224C101.315 5.94734 99.7888 4.43566 97.8667 4.43566C95.9447 4.43566 94.4189 5.96723 94.4189 8.69224C94.4189 11.4173 95.9249 12.9488 97.8667 12.9488C99.8086 12.9488 101.315 11.4371 101.315 8.69224Z" fill="#231F20"/>
<path d="M108.983 7.57887C111.341 7.57887 112.767 8.55351 112.767 10.7216C112.767 12.8897 111.182 14.0234 108.983 14.0234H105.02V3.36206H112.153V4.65495H106.486V7.57887H108.983ZM111.241 10.7415C111.241 9.30935 110.37 8.75241 108.864 8.75241H106.486V12.7305H108.983C110.449 12.7305 111.301 12.0344 111.301 10.7415" fill="#231F20"/>
<path d="M116.256 14.0234H114.77V3.36206H116.256V11.8156L121.962 3.36206H123.449V14.0234H121.962V5.55003L116.256 14.0234Z" fill="#231F20"/>
<path d="M132.761 4.65495H128.996V6.52467C128.817 11.1393 128.084 14.0234 125.905 14.0234H125.469V12.7305H125.687C127.094 12.7305 127.45 9.70716 127.569 6.06718V3.36206H134.148V14.0234H132.761V4.65495Z" fill="#231F20"/>
<path d="M138.449 3.36206V7.34018H140.014C142.67 7.3004 144.651 7.95679 144.651 10.6619C144.651 13.367 142.67 14.0234 140.113 14.0234H136.963V3.36206H138.449ZM142.987 10.6619C142.987 8.89165 141.699 8.67285 140.074 8.67285H138.449V12.7305H140.074C141.699 12.7305 142.987 12.3924 142.987 10.7415" fill="#231F20"/>
<path d="M154.875 14.0234H153.388V9.19001H147.801V14.0234H146.314V3.36206H147.801V7.89712H153.388V3.36206H154.875V14.0234Z" fill="#231F20"/>
<path d="M157.034 8.69224C156.945 7.98643 157.006 7.26967 157.214 6.5896C157.423 5.90953 157.773 5.28174 158.241 4.74798C158.71 4.21421 159.286 3.7867 159.932 3.49386C160.578 3.20102 161.279 3.04956 161.988 3.04956C162.696 3.04956 163.397 3.20102 164.043 3.49386C164.689 3.7867 165.265 4.21421 165.734 4.74798C166.202 5.28174 166.552 5.90953 166.761 6.5896C166.969 7.26967 167.03 7.98643 166.941 8.69224C167.03 9.39805 166.969 10.1148 166.761 10.7949C166.552 11.475 166.202 12.1027 165.734 12.6365C165.265 13.1703 164.689 13.5978 164.043 13.8906C163.397 14.1835 162.696 14.3349 161.988 14.3349C161.279 14.3349 160.578 14.1835 159.932 13.8906C159.286 13.5978 158.71 13.1703 158.241 12.6365C157.773 12.1027 157.423 11.475 157.214 10.7949C157.006 10.1148 156.945 9.39805 157.034 8.69224ZM165.455 8.69224C165.455 5.94734 163.949 4.43566 162.007 4.43566C160.065 4.43566 158.52 5.96723 158.52 8.69224C158.52 11.4173 160.046 12.9488 161.968 12.9488C163.89 12.9488 165.416 11.4371 165.416 8.69224" fill="#231F20"/>
<path d="M176.355 3.36206V4.65495H170.629V7.89712H176.018V9.19001H170.629V12.7305H176.355V14.0234H169.143V3.36206H176.355Z" fill="#231F20"/>
<path d="M46.4863 0.655686C49.1285 0.610955 51.7533 1.09244 54.2089 2.07229C56.6645 3.05214 58.9023 4.51092 60.7928 6.36429C62.6178 8.15268 64.0783 10.2808 65.0927 12.6298C66.1375 15.0593 66.6639 17.6814 66.6382 20.3275C66.6663 22.9738 66.1397 25.5964 65.0927 28.0252C64.0793 30.3833 62.6126 32.5176 60.7765 34.3061C58.9405 36.0945 56.7711 37.5019 54.3925 38.4478C51.8846 39.5056 49.1866 40.0338 46.4665 39.9993H31.4863V0.655686H46.4863ZM51.5194 31.6254C52.9577 31.0382 54.2547 30.1499 55.3238 29.0197C56.3813 27.8616 57.2085 26.5113 57.7611 25.0416C58.3559 23.5217 58.652 21.9006 58.633 20.2678C58.6521 18.6221 58.3561 16.9879 57.7611 15.4543C57.2017 14.0176 56.3745 12.7012 55.3238 11.5756C54.2414 10.4612 52.9479 9.57528 51.5194 8.96996C49.9231 8.30732 48.2137 7.96278 46.4863 7.95554H39.4916V32.6199H46.4863C48.2161 32.66 49.9338 32.3205 51.5194 31.6254Z" fill="#231F20"/>
<path d="M11.889 0C9.53761 0 7.23899 0.699938 5.28385 2.0113C3.3287 3.32267 1.80486 5.18656 0.905004 7.36728C0.00515135 9.548 -0.230291 11.9476 0.22845 14.2626C0.687191 16.5777 1.81951 18.7042 3.48222 20.3732C5.14494 22.0423 7.26336 23.1789 9.56961 23.6394C11.8759 24.0999 14.2663 23.8636 16.4388 22.9603C18.6112 22.057 20.468 20.5273 21.7744 18.5647C23.0808 16.6021 23.7781 14.2948 23.7781 11.9344C23.7781 8.76917 22.5255 5.73362 20.2959 3.49549C18.0662 1.25737 15.0422 0 11.889 0V0ZM11.889 16.9468C10.9241 16.931 9.98504 16.6304 9.18917 16.0824C8.39331 15.5344 7.77582 14.7632 7.41374 13.8652C7.05167 12.9671 6.96105 11.982 7.15318 11.0326C7.34531 10.0832 7.81169 9.21155 8.49413 8.52651C9.17658 7.84147 10.0449 7.37331 10.9907 7.18044C11.9365 6.98758 12.9179 7.07855 13.8125 7.442C14.7072 7.80545 15.4754 8.4253 16.0213 9.2242C16.5672 10.0231 16.8667 10.9657 16.8824 11.9344C16.8932 12.5956 16.7713 13.2522 16.5242 13.8652C16.277 14.4782 15.9096 15.035 15.4438 15.5026C14.9779 15.9702 14.4232 16.3391 13.8125 16.5872C13.2019 16.8352 12.5477 16.9575 11.889 16.9468Z" fill="#231F20"/>
<path d="M179.999 34.7368H80.291V40H179.999V34.7368Z" fill="url(#paint0_linear)"/>
<path d="M81.797 29.3394H82.7877C83.046 29.3595 83.3044 29.3022 83.5302 29.1747C83.7559 29.0472 83.9389 28.8553 84.0559 28.6233L84.254 28.2454L80.291 19.772H81.896L84.9872 26.6939L87.8406 19.772H89.4852L85.5222 28.683C85.3249 29.2523 84.9594 29.7477 84.4743 30.1031C83.9893 30.4585 83.4078 30.6569 82.8075 30.672H81.7177L81.797 29.3394Z" fill="#231F20"/>
<path d="M97.4118 21.0649H92.1014V30.4134H90.6152V19.772H98.8979V30.4134H97.4118V21.0649Z" fill="#231F20"/>
<path d="M109.439 22.9943C109.439 25.6397 107.636 26.2165 105.04 26.2165H103.217V30.4333H101.711V19.772H105.02C107.616 19.772 109.419 20.3488 109.419 22.9943H109.439ZM103.197 24.9833H105.179C106.724 24.9833 107.953 24.8242 107.953 22.9943C107.953 21.1643 106.724 21.0052 105.179 21.0052H103.197V24.9833Z" fill="#231F20"/>
<path d="M114.374 19.772L118.337 30.4333H116.732L115.9 28.126H111.065L110.233 30.4333H108.707L112.67 19.772H114.374ZM115.464 26.8331L113.482 21.2837L111.501 26.8331H115.464Z" fill="#231F20"/>
<path d="M123.686 19.772C125.667 19.772 127.411 20.2891 127.411 22.3975C127.436 22.857 127.342 23.3152 127.137 23.7268C126.932 24.1385 126.623 24.4893 126.242 24.7446C126.743 24.9387 127.169 25.2885 127.458 25.743C127.746 26.1975 127.883 26.7329 127.847 27.2707C127.847 29.5383 126.163 30.4333 124.042 30.4333H119.861V19.772H123.686ZM123.904 24.3269C125.132 24.3269 125.885 23.8495 125.885 22.5964C125.885 21.3433 125.073 21.0251 123.904 21.0251H121.347V24.3269H123.904ZM124.062 29.1603C125.568 29.1603 126.321 28.5039 126.321 27.2906C126.321 26.0773 125.568 25.5204 123.963 25.5204H121.347V29.1603H124.062Z" fill="#231F20"/>
<path d="M136.249 21.0649H132.504V22.9147C132.345 27.5293 131.612 30.4333 129.432 30.4333H128.977V29.1404H129.195C130.601 29.1404 130.978 26.0972 131.176 22.4572V19.772H137.834V30.4333H136.328L136.249 21.0649Z" fill="#231F20"/>
<path d="M147.761 19.772V21.0649H142.054V24.2871H147.424V25.5999H142.054V29.1206H147.761V30.4134H140.568V19.772H147.761Z" fill="#231F20"/>
<path d="M158.46 30.4134H156.974V25.58H151.406V30.4134H149.9V19.772H151.406V24.2871H156.974V19.772H158.46V30.4134Z" fill="#231F20"/>
<path d="M162.781 30.4134H161.275V19.772H162.781V28.2255L168.488 19.772H169.974V30.4134H168.488V21.9599L162.781 30.4134Z" fill="#231F20"/>
<path d="M180 19.772V21.0649H174.273V24.2871H179.663V25.5999H174.273V29.1206H180V30.4134H172.787V19.772H180Z" fill="#231F20"/>
</g>
<defs>
<linearGradient id="paint0_linear" x1="79.4669" y1="36.5336" x2="179.175" y2="36.5336" gradientUnits="userSpaceOnUse">
<stop stop-color="#CFE9DC"/>
<stop offset="0.21" stop-color="#CFE9DC"/>
<stop offset="0.37" stop-color="#C7E3DD"/>
<stop offset="0.61" stop-color="#B0D3DF"/>
<stop offset="0.92" stop-color="#8BBAE2"/>
<stop offset="0.94" stop-color="#87B7E2"/>
<stop offset="1" stop-color="#87B7E2"/>
</linearGradient>
<clipPath id="clip0">
<rect width="180" height="40" fill="white"/>
</clipPath>
</defs>
</svg>

<svg width="180" height="40" viewBox="0 0 180 40" fill="none" xmlns="http://www.w3.org/2000/svg"><g clip-path="url(#clip0)"><path d="M81.797 4.735v9.288H80.31V3.363h2.496l2.715 8.89 2.715-8.89h2.496v10.66h-1.486V4.735l-2.933 9.288H84.73l-2.932-9.288zm11.096 3.957a5.03 5.03 0 011.208-3.944 4.995 4.995 0 013.746-1.698 4.977 4.977 0 013.746 1.698 5.036 5.036 0 011.208 3.944 5.036 5.036 0 01-1.208 3.944 4.989 4.989 0 01-3.746 1.699 4.976 4.976 0 01-3.746-1.699 5.018 5.018 0 01-1.208-3.944zm8.422 0c0-2.745-1.526-4.256-3.448-4.256s-3.448 1.531-3.448 4.256c0 2.725 1.506 4.257 3.448 4.257s3.448-1.512 3.448-4.257zm7.668-1.113c2.358 0 3.784.975 3.784 3.143 0 2.168-1.585 3.301-3.784 3.301h-3.963V3.363h7.133v1.292h-5.667v2.924h2.497zm2.258 3.163c0-1.433-.871-1.99-2.377-1.99h-2.378v3.978h2.497c1.466 0 2.318-.696 2.318-1.989m4.955 3.282h-1.486V3.363h1.486v8.453l5.706-8.454h1.487v10.661h-1.487V5.55l-5.706 8.473zm16.505-9.368h-3.765v1.87c-.179 4.614-.912 7.498-3.091 7.498h-.436V12.73h.218c1.407 0 1.763-3.023 1.882-6.663V3.362h6.579v10.661h-1.387V4.655zm5.688-1.293V7.34h1.565c2.656-.04 4.637.617 4.637 3.322s-1.981 3.361-4.538 3.361h-3.15V3.363h1.486zm4.538 7.3c0-1.77-1.288-1.99-2.913-1.99h-1.625v4.058h1.625c1.625 0 2.913-.338 2.913-1.989m11.888 3.282h-1.487V9.19h-5.587v4.833h-1.487V3.363h1.487v4.534h5.587V3.362h1.487v10.661zm2.159-5.331a5.036 5.036 0 01.18-2.102 4.998 4.998 0 014.774-3.54 4.979 4.979 0 013.746 1.698 5.038 5.038 0 011.027 1.842c.208.68.269 1.396.18 2.102a5.036 5.036 0 01-.18 2.103 4.997 4.997 0 01-4.773 3.54 4.979 4.979 0 01-3.747-1.698 5.038 5.038 0 01-1.027-1.842 5.036 5.036 0 01-.18-2.103zm8.421 0c0-2.745-1.506-4.256-3.448-4.256s-3.487 1.531-3.487 4.256c0 2.725 1.526 4.257 3.448 4.257s3.448-1.512 3.448-4.257m10.939-5.33v1.293h-5.726v3.242h5.389V9.19h-5.389v3.54h5.726v1.293h-7.212V3.363h7.212zM46.486.656a19.926 19.926 0 017.723 1.416 19.986 19.986 0 016.584 4.292 19.715 19.715 0 014.3 6.266 19.018 19.018 0 011.545 7.697 18.939 18.939 0 01-1.545 7.698 19.535 19.535 0 01-4.317 6.281 19.45 19.45 0 01-6.384 4.142 19.749 19.749 0 01-7.925 1.551h-14.98V.656h15zm5.033 30.97a10.917 10.917 0 003.805-2.606 12.34 12.34 0 002.437-3.978c.595-1.52.891-3.141.872-4.774a12.88 12.88 0 00-.872-4.814 12.138 12.138 0 00-2.437-3.878 11.63 11.63 0 00-3.805-2.606 13.272 13.272 0 00-5.033-1.014h-6.994V32.62h6.994c1.73.04 3.448-.3 5.033-.995zM11.889 0c-2.351 0-4.65.7-6.605 2.011A11.925 11.925 0 00.905 7.367a11.983 11.983 0 00-.677 6.896 11.948 11.948 0 003.254 6.11A11.875 11.875 0 009.57 23.64c2.306.46 4.696.225 6.869-.679a11.9 11.9 0 005.335-4.395 11.966 11.966 0 00-1.478-15.07A11.866 11.866 0 0011.889 0zm0 16.947a4.902 4.902 0 01-2.7-.865 4.93 4.93 0 01-1.775-2.217 4.95 4.95 0 011.08-5.338 4.897 4.897 0 015.318-1.085 4.917 4.917 0 012.21 1.782 4.946 4.946 0 01-.578 6.279 4.914 4.914 0 01-3.555 1.444z" fill="#231F20"/><path d="M179.999 34.737H80.291V40h99.708v-5.263z" fill="url(#paint0_linear)"/><path d="M81.797 29.34h.99a1.304 1.304 0 001.269-.717l.198-.378-3.963-8.473h1.605l3.091 6.922 2.854-6.922h1.644l-3.963 8.911a2.963 2.963 0 01-1.048 1.42 2.945 2.945 0 01-1.666.569h-1.09l.079-1.333zm15.615-8.275h-5.31v9.348h-1.487V19.772h8.283v10.641h-1.486v-9.348zm12.027 1.929c0 2.646-1.803 3.223-4.399 3.223h-1.823v4.216h-1.506V19.772h3.309c2.596 0 4.399.577 4.399 3.222h.02zm-6.242 1.99h1.982c1.545 0 2.774-.16 2.774-1.99s-1.229-1.989-2.774-1.989h-1.982v3.978zm11.177-5.212l3.963 10.661h-1.605l-.832-2.307h-4.835l-.832 2.307h-1.526l3.963-10.661h1.704zm1.09 7.061l-1.982-5.55-1.981 5.55h3.963zm8.222-7.061c1.981 0 3.725.517 3.725 2.626a2.645 2.645 0 01-1.169 2.347 2.52 2.52 0 011.605 2.526c0 2.267-1.684 3.162-3.805 3.162h-4.181V19.772h3.825zm.218 4.555c1.228 0 1.981-.478 1.981-1.73 0-1.254-.812-1.572-1.981-1.572h-2.557v3.302h2.557zm.158 4.833c1.506 0 2.259-.656 2.259-1.87 0-1.213-.753-1.77-2.358-1.77h-2.616v3.64h2.715zm12.187-8.095h-3.745v1.85c-.159 4.614-.892 7.518-3.072 7.518h-.455V29.14h.218c1.406 0 1.783-3.043 1.981-6.683v-2.685h6.658v10.661h-1.506l-.079-9.368zm11.512-1.293v1.293h-5.707v3.222h5.37V25.6h-5.37v3.52h5.707v1.293h-7.193V19.772h7.193zm10.699 10.641h-1.486V25.58h-5.568v4.833H149.9V19.772h1.506v4.515h5.568v-4.515h1.486v10.641zm4.321 0h-1.506V19.772h1.506v8.454l5.707-8.454h1.486v10.641h-1.486V21.96l-5.707 8.453zM180 19.772v1.293h-5.727v3.222h5.39V25.6h-5.39v3.52H180v1.293h-7.213V19.772H180z" fill="#231F20"/></g><defs><linearGradient id="paint0_linear" x1="79.467" y1="36.534" x2="179.175" y2="36.534" gradientUnits="userSpaceOnUse"><stop stop-color="#CFE9DC"/><stop offset=".21" stop-color="#CFE9DC"/><stop offset=".37" stop-color="#C7E3DD"/><stop offset=".61" stop-color="#B0D3DF"/><stop offset=".92" stop-color="#8BBAE2"/><stop offset=".94" stop-color="#87B7E2"/><stop offset="1" stop-color="#87B7E2"/></linearGradient><clipPath id="clip0"><path fill="#fff" d="M0 0h180v40H0z"/></clipPath></defs></svg>
